svg/fujiko_action.svg

<?xml version="1.0" encoding="UTF-8"?>
<svg xmlns="http://www.w3.org/2000/svg" viewBox="0 0 28 40">
  <defs>
    <style>
      .cls-1, .cls-2 {
        fill: #fff;
      }

      .cls-2 {
        opacity: .3;
      }

      .cls-3 {
        fill: gray;
      }

      .cls-4 {
        fill: #697caf;
      }

      .cls-5 {
        fill: #ffce00;
      }

      .cls-6 {
        fill: #ccc;
      }
    </style>
  </defs>
  <g id="_ピン" data-name="ピン">
    <g>
      <g>
        <polygon class="cls-3" points="15 40 13 40 12 30 16 30 15 40"/>
        <rect class="cls-6" x="14" y="30" width="1" height="10"/>
      </g>
      <g>
        <rect class="cls-3" x="12" y="20" width="4" height="10"/>
        <rect class="cls-6" x="14" y="20" width="1" height="10"/>
      </g>
    </g>
  </g>
  <g id="_ノーマル" data-name="ノーマル">
    <path id="_富士山" data-name="富士山" class="cls-4" d="M22,12c-2.5-3.5-4.43-12-4.43-12h-7.13s-1.93,8.5-4.43,12C4.31,14.37,0,20,0,20H28s-4.31-5.63-6-8Z"/>
    <g id="_山頂" data-name="山頂">
      <path class="cls-1" d="M17,1h-6s-.58,3.03-1.5,6.22l2.88-2.22,1.62,3,1.62-3,2.88,2.22c-.92-3.19-1.5-6.22-1.5-6.22Z"/>
    </g>
  </g>
  <g id="_要調査" data-name="要調査">
    <path id="_白ベール" data-name="白ベール" class="cls-2" d="M10.07,0h9.17c4.84,0,8.76,3.93,8.76,8.76v11.24H0V10.07C0,4.51,4.51,0,10.07,0Z"/>
    <g>
      <rect class="cls-5" x="9.19" y="11.19" width="16.61" height="16.61" rx="3" ry="3" transform="translate(-8.66 18.08) rotate(-45)"/>
      <path d="M18.75,23.83c0,.7-.56,1.26-1.25,1.26s-1.25-.56-1.25-1.26,.56-1.25,1.25-1.25,1.25,.56,1.25,1.25Zm-.57-2.88c-.07,.46-.16,.78-.69,.78s-.61-.35-.66-.78l-.46-3.49v-2.5c0-.78,.42-1.05,1.16-1.05s1.11,.31,1.11,1.05v2.5l-.46,3.49Z"/>
    </g>
  </g>
</svg>

<?xml version="1.0" encoding="utf-8"?>
<!-- Generator: Adobe Illustrator 27.1.1, SVG Export Plug-In . SVG Version: 6.00 Build 0)  -->
<svg version="1.1" xmlns="http://www.w3.org/2000/svg" xmlns:xlink="http://www.w3.org/1999/xlink" x="0px" y="0px" viewBox="0 0 28 40" style="enable-background:new 0 0 28 40;" xml:space="preserve">
<style type="text/css">
	.st0{display:none;}
	.st1{fill:#808080;}
	.st2{fill:#CCCCCC;}
	.st3{fill:#697CAF;}
	.st4{fill:#FFFFFF;}
	.st5{fill:#1B1464;}
	.st6{fill:#2E3192;}
	.st7{opacity:0.3;fill:#FFFFFF;}
	.st8{fill:#FFCE00;}
	.st9{fill:#7C7C7C;}
	.st10{fill:#FF0000;}
	.st11{fill:#F2F2F2;}
</style>
<g id="ガイド_00000162338702563158607440000009963323815856875396_" class="st0">
</g>
<g id="ピン">
	<g>
		<g>
			<polygon class="st1" points="15,40 13,40 12,30 16,30 			"/>
			<rect x="14" y="30" class="st2" width="1" height="10"/>
		</g>
		<g>
			<rect x="12" y="20" class="st1" width="4" height="10"/>
			<rect x="14" y="20" class="st2" width="1" height="10"/>
		</g>
	</g>
</g>
<g id="ノーマル">
	<path id="富士山" class="st3" d="M22,12c-2.5-3.5-4.4-12-4.4-12H14h-3.6c0,0-1.9,8.5-4.4,12c-1.7,2.4-6,8-6,8h14h14
		C28,20,23.7,14.4,22,12z"/>
	<g id="山頂">
		<path class="st4" d="M17,1h-3h-3c0,0-0.6,3-1.5,6.2L12.4,5L14,8l1.6-3l2.9,2.2C17.6,4,17,1,17,1z"/>
	</g>
</g>

<g id="要調査">
	<path id="白ベール" class="st7" d="M28,20H0v-9.9C0,4.5,4.5,0,10.1,0h9.2C24.1,0,28,3.9,28,8.8V20z"/>
	<g>
		<path class="st8" d="M27.1,21.6l-7.5,7.5c-1.2,1.2-3.1,1.2-4.2,0l-7.5-7.5c-1.2-1.2-1.2-3.1,0-4.2l7.5-7.5c1.2-1.2,3.1-1.2,4.2,0
			l7.5,7.5C28.3,18.5,28.3,20.5,27.1,21.6z"/>
		<g>
			<path d="M18.7,23.8c0,0.7-0.6,1.3-1.2,1.3s-1.3-0.6-1.3-1.3c0-0.7,0.6-1.2,1.3-1.2S18.7,23.1,18.7,23.8z M18.2,21
				c-0.1,0.5-0.2,0.8-0.7,0.8c-0.5,0-0.6-0.4-0.7-0.8l-0.5-3.5V15c0-0.8,0.4-1.1,1.2-1.1c0.7,0,1.1,0.3,1.1,1.1v2.5L18.2,21z"/>
		</g>
	</g>
</g>

</svg>
